X:1
T:Partita III Allemande
T:BWV 827
T:J. S. Bach
%%score { ( 1 3 4 5 ) | ( 2 6 7 ) }
L:1/8
Q:1/4=60
M:4/4
K:C
V:1 treble nm="Harp"
V:3 treble 
V:4 treble 
V:5 treble 
V:2 bass 
V:6 bass 
V:7 bass 
V:1
"^Lent" ee/4d/4c/4B/4 | c/B/4A/4d/c/4B/4 e/d/4c/<f/A/4 ^G/4A/4B/4d/4-d- d-d/c/4B/4 | %2
 c2- c/>A/d/>E/ =G/4F/4G/4F/4E- E/4G/4F/4E/4A/B/4c/4- | %3
 c2- c/4A/4G/4^F/4B/c/4d/4- d2- d/4f/4e/4d/4^g/a/4b/4 | %4
 e>a- a/>f/e/>d/ d/4c/4d/4c/4B/A/ e/4d/4e/4d/4c/4B/4c/4e/4 | %5
 g/4d/4c/4B/4c/4e/4d/4c/4 a2- a/4d/4e/4^f/<g/a/4 b/4a/4b/-b- | %6
 b/4e/4^f/4^g/<a/b/4 c'/>f/(4:3:4a/4=g/4f/4g/4a/4 (4:3:4e/4^d/4e/4d/4^c/4B- B/4B/4c/4d/4(4:3:4d/4c/4d/4c/4B/4 | %7
 e/4B/4c/4d/4(4:3:4d/4c/4B/4c/4B/4 ^f2 z/4 e/4f/4g/4(4:3:4g/4f/4g/4f/4e/4 ^a2 | %8
 z/4 a/4g/4^f/4g- gf/>^d/ de e/4=d/4e/-e/4d/4c/4B/4 | %9
 c/B/4A/4d/c/4B/4 e/d/4c/<f/A/4 ^G/4A/4B/4d/4-d- d-d/c/4B/4 | %10
 c2- c/>A/d/>E/ =G/4F/4G/4F/4E- E/4G/4F/4E/4A/B/4c/4- | %11
 c2- c/4A/4G/4^F/4B/c/4d/4- d2- d/4f/4e/4d/4^g/a/4b/4 | %12
 e>a- a/>f/e/>d/ d/4c/4d/4c/4B/A/ e/4d/4e/4d/4c/4B/4c/4e/4 | %13
 g/4d/4c/4B/4c/4e/4d/4c/4 a2- a/4d/4e/4^f/<g/a/4 b/4a/4b/-b- | %14
 b/4e/4^f/4^g/<a/b/4 c'/>f/(4:3:4a/4=g/4f/4g/4a/4 (4:3:4e/4^d/4e/4d/4^c/4B- B/4B/4c/4d/4(4:3:4d/4c/4d/4c/4B/4 | %15
 e/4B/4c/4d/4(4:3:4d/4c/4B/4c/4B/4 ^f2 z/4 e/4f/4g/4(4:3:4g/4f/4g/4f/4e/4 ^a2 | %16
 z/4 a/4g/4^f/4g- gf/>^d/ de B/=d/4c/4B/4c/4d/ | %17
 ^G/A/4B/4E/G/4B/4 d/c/4B/4f/e/4d/4 z A- A/4B/4c/4d/4e/4f/4g/ | %18
 ^c/d/4e/4A/c/4e/4 g/f/4e/4_b/a/4g/4 z d- d/4f/4e/4d/4g/4a/4b/- | %19
 b2 z3/4 c/4-c z _B- B/4d/4c/4B/4e/4f/4g/- | g/4g/4f/4e/<f/d/4- d/^c/4d/4e/4d/4c/ d2 z2 | %21
 B/4A/4G/4^F/4G/4B/4d/4e/4 f2- f/4-f/4e/4d/<e/c/4 A2- | %22
 A/4^G/4A/4B/4E/4d/4c/4B/4 c-c/4c/4B/4A/4 A/4G/4A/4G/4A/4G/4A/4G/4 AB- | %23
 B/4A/4B/4c/4(4:3:4c/4B/4c/4B/4A/4 ^G/4B/4c/4d/4(4:3:4d/4c/4d/4c/4B/4 A/4e/4^f/4g/4(4:3:4g/4f/4g/4f/4e/4 z/4 a/4b/4c'/4b/4a/4^g/4a/4 | %24
 d/4f/4e/4d/4e/4B/4c/4A/4 z/ A/B/>^G/ GA B/d/4c/4B/4c/4d/ | %25
 ^G/A/4B/4E/G/4B/4 d/c/4B/4f/e/4d/4 z A- A/4B/4c/4d/4e/4f/4g/ | %26
 ^c/d/4e/4A/c/4e/4 g/f/4e/4_b/a/4g/4 z d- d/4f/4e/4d/4g/4a/4b/- | %27
 b2 z3/4 c/4-c z _B- B/4d/4c/4B/4e/4f/4g/- | g/4g/4f/4e/<f/d/4- d/^c/4d/4e/4d/4c/ d2 z2 | %29
 B/4A/4G/4^F/4G/4B/4d/4e/4 f2- f/4-f/4e/4d/<e/c/4 A2- | %30
 A/4^G/4A/4B/4E/4d/4c/4B/4 c-c/4c/4B/4A/4 A/4G/4A/4G/4A/4G/4A/4G/4 AB- | %31
 B/4A/4B/4c/4(4:3:4c/4B/4c/4B/4A/4 ^G/4B/4c/4d/4(4:3:4d/4c/4d/4c/4B/4 A/4e/4^f/4g/4(4:3:4g/4f/4g/4f/4e/4 z/4 a/4b/4c'/4b/4a/4^g/4a/4 | %32
 d/4f/4e/4d/4e/4B/4c/4A/4 z/ A/B/>^G/ G!fermata!A z2 |] %33
V:2
 z/ A,,/C,/E,/ | A,B,CD E z/4 C/4B,/4A,/4 ^G,/A,/4B,/4E,/^F,/4G,/4 | %2
 A,CDG, C z/4 C,/4E,/4G,/4 C3/2B,/4A,/4 | D z/4 D,/4^F,/4A,/4 D3/2C/4B,/4 E z/4 C/4B,/4A,/4 ^G,2- | %4
 G,A,- [D,A,]^G, A,2- A,/ z/ z | z G, z A, z D G z | C2- C/>C/B,/>A,/ B,2 A,2 | %7
 z E2 ^D E2 ^C,/>E,/^A,/>^F,/ | C(4:3:4C/4B,/4C/4B,/4A,/4 B,2 E,2 z/ A,,/C,/E,/ | %9
 A,B,CD E z/4 C/4B,/4A,/4 ^G,/A,/4B,/4E,/^F,/4G,/4 | A,CDG, C z/4 C,/4E,/4G,/4 C3/2B,/4A,/4 | %11
 D z/4 D,/4^F,/4A,/4 D3/2C/4B,/4 E z/4 C/4B,/4A,/4 ^G,2- | G,A,- [D,A,]^G, A,2- A,/ z/ z | %13
 z G, z A, z D G z | C2- C/>C/B,/>A,/ B,2 A,2 | z E2 ^D E2 ^C,/>E,/^A,/>^F,/ | %16
 C(4:3:4C/4B,/4C/4B,/4A,/4 B,2 E,2 z/ E,,/^G,,/B,,/ | %17
 z ^G,2 G, A,/4G,/<A,/B,/4A,/4G,/4 A,/>E,/C,/>E,/ | z ^C,2 C, D, z _B,/>A,/B,/>G,/ | %19
 C-C/4E,/4D,/4C,/4 A,/>G,/A,/>F,/ _B,-B,/4A,/4G,/4F,/4 E,/>F,/G,/>E,/ | ^CD A,2- A,A, ^E,D, | %21
 G,4 C,2- C,/>^C,/D,/>E,/ | F,^G,,A,,^F,, E,,/4B,,/4C,/4D,/4E, ^F,^G, | [A,C]2 [B,D]2 [CE]2 z G,- | %24
 G,A, E,2 A,,2 z/ E,,/^G,,/B,,/ | z ^G,2 G, A,/4G,/<A,/B,/4A,/4G,/4 A,/>E,/C,/>E,/ | %26
 z ^C,2 C, D, z _B,/>A,/B,/>G,/ | %27
 C-C/4E,/4D,/4C,/4 A,/>G,/A,/>F,/ _B,-B,/4A,/4G,/4F,/4 E,/>F,/G,/>E,/ | ^CD A,2- A,A, ^E,D, | %29
 G,4 C,2- C,/>^C,/D,/>E,/ | F,^G,,A,,^F,, E,,/4B,,/4C,/4D,/4E, ^F,^G, | [A,C]2 [B,D]2 [CE]2 z G,- | %32
 G,A, E,2 !fermata!A,,2 z2 |] %33
V:3
 x2 | z4 ^G- G- G z | z/4 B/4A/4^G/<A/E/4 F>D DC z3/4 E-E/4 | ^FD z3/4 F-F/4 ^GE z3/4 d/4-d- | %4
 d/4d/4c/4B/4c B2 z4 | z2 z/ c/d/>A/ B2 z2 | %6
 z[I:staff +1] E[I:staff -1] A>G ^F/4G/4F/4E/4F/4^D/4E/4F/4 z F | %7
 z2 z/4 A/4B/4c/4(4:3:4c/4B/4c/4B/4A/4 G2 z/4 e/4^f/4g/4(4:3:4g/4f/4g/4f/4e/4 | %8
 ^d>e c/4B/4A/-A A^G z2 | z4 ^G- G- G z | z/4 B/4A/4^G/<A/E/4 F>D DC z3/4 E-E/4 | %11
 ^FD z3/4 F-F/4 ^GE z3/4 d/4-d- | d/4d/4c/4B/4c B2 z4 | z2 z/ c/d/>A/ B2 z2 | %14
 z[I:staff +1] E[I:staff -1] A>G ^F/4G/4F/4E/4F/4^D/4E/4F/4 z F | %15
 z2 z/4 A/4B/4c/4(4:3:4c/4B/4c/4B/4A/4 G2 z/4 e/4^f/4g/4(4:3:4g/4f/4g/4f/4e/4 | %16
 ^d>e c/4B/4A/-A A^G x2 | z2[I:staff +1] B,2[I:staff -1] c2 z2 | %18
 z2[I:staff +1] E,2[I:staff -1] f2 z3/4 d/4-d | z c- c/4e/4d/4c/4f/4g/4a/- a2 z3/4 =B/4-B | %20
 A2 G2- G/4G/4F/4E/4F/4G/4A/4F/4 D/4F/4A/4B/4=c/4B/4A/4c/4 | z2 z/ c/d/>B/ G2- G/4G/4=F/4E/<F/D/4 | %22
 B,E E/4A/4B/4c/4^D z z/4 F/4E/4=D/4 z/4 F/4E/4D/4 z/4 F/4E/4D/4 | z4 z2 ^d2 | z2 ED DC z2 | %25
 z2[I:staff +1] B,2[I:staff -1] c2 z2 | z2[I:staff +1] E,2[I:staff -1] f2 z3/4 d/4-d | %27
 z c- c/4e/4d/4c/4f/4g/4a/- a2 z3/4 =B/4-B | %28
 A2 G2- G/4G/4F/4E/4F/4G/4A/4F/4 D/4F/4A/4B/4=c/4B/4A/4c/4 | z2 z/ c/d/>B/ G2- G/4G/4=F/4E/<F/D/4 | %30
 B,E E/4A/4B/4c/4^D z z/4 F/4E/4=D/4 z/4 F/4E/4D/4 z/4 F/4E/4D/4 | z4 z2 ^d2 | z2 ED DC x2 |] %33
V:4
 x2 | z4 z/ B/- B- B z | x8 | ^F/G/4A/4-A z2 ^G/A/4B/4-B z2 | x8 | x8 | x8 | x8 | z4 B2 z2 | %9
 z4 z/ B/- B- B z | x8 | ^F/G/4A/4-A z2 ^G/A/4B/4-B z2 | x8 | x8 | x8 | x8 | z4 B2 x2 | %17
 z4 c/d/4e/4-e z2 | x8 | e/f/4g/4- g z2 d/e/4f/4- f z2 | x8 | x8 | x8 | x8 | z4 E2 z2 | %25
 z4 c/d/4e/4-e z2 | x8 | e/f/4g/4- g z2 d/e/4f/4- f z2 | x8 | x8 | x8 | x8 | z4 E2 x2 |] %33
V:5
 x2 | z4 z E- E z | x8 | x8 | x8 | x8 | x8 | x8 | x8 | z4 z E- E z | x8 | x8 | x8 | x8 | x8 | x8 | %16
 x8 | x8 | x8 | x8 | x8 | x8 | x8 | x8 | x8 | x8 | x8 | x8 | x8 | x8 | x8 | x8 | x8 |] %33
V:6
 x2 | x8 | x8 | x8 | C,F,- F,E, A,/>E,/D,/4C,/4D,/4E,/4 A,,/>A,/=G,/>F,/ | %5
 E,2 ^F,2 G,2- G,/4A,/4G,/4F,/4G,/4E,/4G,/4B,/4 | x8 | G,2 ^F,2 z/ B,/G,/>B,/ z2 | %8
 z2 B,B,, E,,2 z2 | x8 | x8 | x8 | C,F,- F,E, A,/>E,/D,/4C,/4D,/4E,/4 A,,/>A,/=G,/>F,/ | %13
 E,2 ^F,2 G,2- G,/4A,/4G,/4F,/4G,/4E,/4G,/4B,/4 | x8 | G,2 ^F,2 z/ B,/G,/>B,/ z2 | %16
 z2 B,B,, E,,2 x2 | E,3 E, A, z z2 | A,,3 A,, D,-D,/4F,/4E,/4D,/4 z2 | x8 | z2 A,A,, D,2 z2 | %21
 z D,B,,G,, C, z z2 | z4 E,,E,- E,2- | E,E,- E,E,- E,A, ^F,/>A,/^G,/>=F,/- | F,E, E,E,, A,,,2 z2 | %25
 E,3 E, A, z z2 | A,,3 A,, D,-D,/4F,/4E,/4D,/4 z2 | x8 | z2 A,A,, D,2 z2 | z D,B,,G,, C, z z2 | %30
 z4 E,,E,- E,2- | E,E,- E,E,- E,A, ^F,/>A,/^G,/>=F,/- | F,E, E,E,, A,,,2 x2 |] %33
V:7
 x2 | x8 | x8 | x8 | x8 | x8 | x8 | x8 | x8 | x8 | x8 | x8 | x8 | x8 | x8 | x8 | x8 | x8 | x8 | %19
 x8 | x8 | x8 | x8 | x8 | B,,C,/>D,/ z2 z4 | x8 | x8 | x8 | x8 | x8 | x8 | x8 | %32
 B,,C,/>D,/ z2 z2 x2 |] %33

